X: 67
T:Battle of Waterloo, the
M:4/4
L:1/8
R:Reel
K:Am
ed/2B/2|"Am"A2 A>B AG GA|"C"c>d ec "Dm"d2 eg ed "Em"ed BA|"G"G>
E GA "Em"G2 ed/2B/2|!
"Am"A2 A>B AG GA|"C"c>d ec "Dm"d2 eg ed "Dm"cA "Em"BG|"Am"A2 A>
B A2|!
 ef||: "C"g>f ed c>d ef|"C"g>a ge g2 ef/2g/2|"Am"a>g ed "Em"ed BA|"G"G>E
 GA "Em"G2 ed/2B/2|!
"Am"A2 A>B AG GA|"C"c>d ec "Dm"d2 eg ed "Dm"cA "Em"BG|"Am"A2 A>
B A2:||
% 

